X:1
T:Peace to the souls of the heroes
T:John Wall Callcott (1766-1821) Accompaniment added by William Horsley (1774-1858)
T:From "Fingal" by Ossian (James Macpherson (1736-1796))
T:Peace to the souls of the heroes
T:A three part glee
T:Copyright © 
T:Copyright © 
T:Copyright © 
T:Copyright © 
T:Copyright © 
T:Copyright © 
T:Copyright © 
T:Copyright © 
T:Copyright © 
T:Copyright © 
T:Copyright © 
C:John Wall Callcott (1766-1821)
C:Accompaniment added by William Horsley (1774-1858)
Z:From "Fingal" by Ossian
Z:(James Macpherson (1736-1796))
Z:Copyright ©
%%score [ 1 2 3 ] { ( 4 6 ) | ( 5 7 ) }
L:1/8
Q:1/2=56
M:3/2
K:G
V:1 treble-8 transpose=-12 nm="Counter tenor" snm="A."
V:2 treble-8 transpose=-12 nm="Tenor" snm="T."
V:3 bass nm="Bass" snm="B."
V:4 treble nm="Piano" snm="Pno."
V:6 treble 
V:5 bass 
V:7 bass 
V:1
!pp!"^Moderately slow" d12 | .d4 z4 z4 | d12 | .d4 z4 z4 | e6 f2 g4 | c6 B2 A4 | B4 B4!f! d4 | %7
w: Peace!|Peace!|Peace!|Peace!|Peace! to the|souls of the|he- roes! Their|
 B6 (AB) c2 A2 | B4 z4!f! B4 | A6 (GA) B2 G2 | A4 f8 | e4 a4 ^c4 | (d2 e2 f2 e2) (d2 ^c2) | %13
w: deeds were _ great in|fight; their|deeds were _ great in|fight; in|fight. Let them|ride _ _ _ a- *|
 B4 (g2 f2) (e2 d2) | (^c4 e4) g4 | f12- | f8 f4 | g4 (e2 f2) (g2 e2) | a8 f4 | g4 f4 e4 | %20
w: round me _ on _|clouds, _ on|clouds,|_ on|clouds, let _ them _|show their|fea- tures in|
 d4 z4 z4 | z4 e4 g4 | f12- | f4!p! a4 f4 |"^cresc." (e2 d2 e2 f2) (g2 e2) | %25
w: war;|let them|show,|_ let them|show _ _ _ their _|
"^a             poco           a           poco" (f2 e2) (f2 g2) (a2 f2) | g4 g4!ff! g4 | g8 f4 | %28
w: fea- * tures _ in _|war; let them|show their|
{a} g4 f4 e4 | f4 z4!p! e4 | f4 z4!ff! e4 | f12 ||[M:4/4][Q:1/4=138]"^With resolution" z8 | z8 | %34
w: * tures in|war; in|war; in|war.|||
 z8 | z8 | z8 | z4!f! d4 | g8 | g4 g2 g2 | g4 f4 | g2 f2 g2 d2 | e4 e2 e2 | (dedc) B2 d2 | %44
w: |||My|soul|then shall be|firm in|dan- ger and miine|arm like the|thun- * * * der, the|
 (cdcB) A2 c2 | B4 z4 | z4 g2 f2 | e4 e2 g2 | (fefg fefg | f2) f2 z2 f2 | (edef edef | %51
w: thun- * * * der of|heav'n!|And mine|arm like the|thun- * * * * * * *|* der, the|thun- * * * * * * *|
 e2) e2 z2 e2 | f4 e2 d2 | d2 ^c2 z4 | z4 f2 g2 | d4 T^c3 B | !fermata!B4 z4 | z4 d4 | g4 f4 | %59
w: * der, mine|arm like the|thun- der,|like the|thun- der of|heav'n!|My|soul then|
 e4 d4 | c4 d4 | B2 G2 B2 d2 | g8- | g8- | g8- | g4 c2 e2 | d8- | d8- | d4 z4 | z4 d2 d2 | %70
w: shall be|firm in|dan- ger, shall be|firm,|_||* shall be|firm,|_||and mine|
 g4 f2 f2 | e4 a3 g | !fermata!f4 ||[M:3/2][Q:1/2=52]"^Expressively" z4 | z12 | z8 d4 | %76
w: arm like the|thun- der of|heav'n!|||O|
 B3 A B4!p! d4 | e6 f2 g4 | A4 B4 g4 | e3 d e4 z4 | z12 | z4 d4 c4 | (3(B2 d2) g2 c4 B4 | %83
w: Mor- * na! Be|thou on a|moon- beam, O|Mor- * na!||Near the|win- * dow of my|
 A4 d4 d4 | d4 d4 B4 | c4 c4 c4 | c4 c4 A4 | B4!ff! g4 g4 | g12- | g6 g2 g2 g2 | g4!p! B4 c4 | %91
w: rest, when my|thoughts are of|peace, when my|thoughts are of|peace, when the|din|_ of arms is|passed, when the|
 d3 c B6 d2 | (c4 B4) A4 | G4!pp! e4 d4 | c3 d B4 B3 d | c3 c B4 A4 | G8 |] %97
w: din of arms, of|arms _ is|passed, when the|din of arms, when the|din of arms is|passed.|
V:2
!pp! B12 | .c4 z4 z4 | A12 | .B4 z4 z4 | c6 c2 B4 | A6 G2 F4 | G4 G4!f! F4 | G6 (FG) A2 F2 | %8
w: Peace!|Peace!|Peace!|Peace!|Peace! to the|souls of the|he- roes! Their|deeds were _ great in|
 G4 z4!f! G4 | F6 (EF) G2 E2 | F4 d8 | ^c4 z4 z4 | z4 d4 F4 | (G2 A2 B2 A2) (G2 F2) | %14
w: fight; their|deeds were _ great in|fight; in|fight.|Let them|ride _ _ _ a- *|
 E4 (^c2 d2) (e2 c2) | A8 d4 | d8 (d2 c2) | B4 (^c2 d2) (e2 c2) | f8 d4 | e4 d4 ^c4 | d4 z4 z4 | %21
w: round me _ on _|clouds, on|clouds, on _|clouds, let _ them _|show their|fea- tures in|war;|
 z4 ^c4 e4 | d12- | d4!p! d4 d4 |"^cresc." d12- | %25
w: let them|show,|_ let them|show,|
"^a             poco           a           poco" d12- | d4 d4!ff! d4 | e8 d4 |{f} e4 d4 ^c4 | %29
w: _|* let them|show their|* tures in|
 d4!p! z4 ^c4 | d4!ff! z4 ^c4 | d12 ||[M:4/4] z4!f! G4 | d8 | d4 d2 d2 | d4 d4- | d4 ^c4 | %37
w: war; in|war; in|war.|My|soul|then shall be|firm, firm|_ in|
 d2 A2 d2 c2 | B4 G2 A2 | B4 A2 B2 | (cdcB) A2 d2 | B4 B2 B2 | c4 c2 c2 | (BcBA) G2 B2 | %44
w: dan- ger and mine|arm, and miine|arm like the|thun- * * * der of|heav'n! and mine|arm like the|thun- * * * der, the|
 (ABAG) F2 A2 | G4 z4 | z4 e2 d2 | ^c4 c2 e2 | (d^cde dcde | d2) d2 z2 d2 | (^cBcd cBcd | %51
w: thun- * * * der of|heav'n!|And mine|arm like the|thun- * * * * * * *|* der, the|thun- * * * * * * *|
 ^c2) c2 z2 c2 | d4 ^c2 B2 | B2 ^A2 z4 | z4 d2 e2 | B4 T^A3 B | !fermata!B4 z4 | z4 B4 | e4 d4 | %59
w: * der, mine|arm like the|thun- der,|like the|thun- der of|heav'n!|My|soul then|
 c4 B4 | A6 A2 | G2 G2 z4 | z4 B2 c2 | d4 c2 B2 | (eded eded | e2) c2 G2 c2 | (BABA BABA | %67
w: shall be|firm in|dan- ger,|and mine|arm like the|thun- * * * * * * *|* der like the|thun- * * * * * * *|
 B2) G2 D2 G2 | (FEFG AFGA | B2) G2 B2 B2 | ^c4 d2 d2 | d4 ^c3 c | !fermata!d4 ||[M:3/2]!p! d3 c | %74
w: * der, like the|thun- * * * * * * *|* der, and mine|arm like the|thun- der of|heav'n!|But be|
 B6 c2 d4 | E4 F4 A4 | G3 F G4 z4 | z12 | z8 d4 | c3 B c4 z4 | z12 | z4 F4 A4 | G3 B A4 G4 | %83
w: thou on a|moon- beam, O|Mor- * na!||O|Mor- * na!||Near the|win- dow of my|
 F4 F4 A4 | ^G4 B4 G4 | A4 E4 G4 | F4 A4 F4 | G4 z4 z4 | z4!ff! d4 d4 | e6 d2 e2 d2 | e4!p! G4 A4 | %91
w: rest, when my|thoughts are of|peace, when my|thoughts are of|peace,|when the|din of arms is|passed, when the|
 B3 A G6 B2 | (A4 G4) F4 | G4!pp! c4 B4 | A3 F G4 G3 B | A3 A G4 F4 | G8 |] %97
w: din of arms, of|arms _ is|passed, when the|din of arms, when the|din of arms is|passed.|
V:3
!pp! G,12 | .A,4 z4 z4 | F,12 | .G,4 z4 z4 | C,6 D,2 E,4 | A,,6 D,2 D,4 | G,,4 G,,4 z4 | z8 D,4 | %8
w: Peace!|Peace!|Peace!|Peace!|Peace! to the|souls of the|he- roes!|Their|
 G,,6 A,,2 B,,2 C,2 | D,4 z4 D,4 | D,6 E,2 F,2 G,2 | A,4 z4 z4 | z12 | z12 | z4 A,4 ^C,4 | %15
w: deeds were great in|fight; their|deeds were great in|fight.|||Let them|
 (D,2 E,2 F,2 E,2) (D,2 ^C,2) | (B,,2 ^C,2) (D,2 =C,2) (B,,2 A,,2) | G,,4 G,4 G,4 | F,8 B,4 | %19
w: ride _ _ _ a- *|round _ me _ on _|clouds, let them|show their|
 G,4 A,4 A,,4 | D,4 F,4 D,4 | A,8 A,4 | D4 A,4 B,4 | F,4!p! F,4 F,4 |"^cresc." G,8 G,4 | %25
w: fea- tures in|war; let them|show their|fea- tures in|war; let them|show their|
"^a             poco           a           poco" A,4 A,4 A,4 | B,4 B,4!ff! B,4 | ^C8 D4 | %28
w: fea- tures in|war; let them|show their|
 G,4 A,4 A,,4 | D,4 z4!p! A,,4 | D,4 z4!ff! A,4 | D12 ||[M:4/4] z8 | z8 | z8 | z8 | z8 | z8 | z8 | %39
w: fea- tures in|war; in|war; in|war.||||||||
 z8 | z4!f! D,4 | G,8 | G,4 G,2 G,2 | G,8 | D,6 D,2 | G,,2 D,2 G,2 F,2 | E,4 E,2 (F,G,) | %47
w: |My|soul|then shall be|firm,|firm in|dan- ger and mine|arm like the _|
 (A,G,A,B,) A,2 A,2 | D4 z2 A,2 | (D,^C,D,E, F,E,F,G,) | A,2 A,,2 z2 A,,2 | (A,^G,A,B, A,=G,F,E, | %52
w: thun- * * * der of|heav'n! the|thun- * * * * * * *|* der, the|thun- * * * * * * *|
 D,2) D,2 E,2 E,2 | (F,E,F,G, F,E,D,^C, | D,2) B,,2 B,2 E,2 | F,4 F,3 F, | !fermata!B,,4 D,4 | %57
w: * der, like the|thun- * * * * * * *|* der, like the|thun- der of|heav'n! My|
 G,8 | G,4 G,2 G,2 | G,4 G,4- | G,4 F,4 | G,2 G,2 z4 | z4 G,2 A,2 | B,4 A,2 G,2 | (CB,CB, CB,CB, | %65
w: soul|then shall be|firm, firm|_ in|dan- ger,|and mine|arm like the|thun- * * * * * * *|
 C2) C,2 E,2 C,2 | (G,F,G,F, G,F,G,F, | G,2) G,,2 B,,2 G,,2 | (D,^C,D,E, F,D,E,F, | %69
w: * der like the|thun- * * * * * * *|* der, like the|thun- * * * * * * *|
 G,2) G,,2 G,2 F,2 | E,4 (D,E,) (F,G,) | A,4 A,3 A, | !fermata!D,4 ||[M:3/2] z4 | z12 | z8 D,4 | %76
w: * der, and mine|arm like _ the _|thun- der of|heav'n!|||O|
 G,4 G,,4 z4 | z12 | z8 G,4 | C4 C,4"^dolce" E,3 F, | G,6 A,2 B,2 G,2 | D,8 D,4 | G,3 E, F,4 G,4 | %83
w: Mor- na!||O|Mor- na! Near the|win- dow of my|rest, the|win- dow of my|
 D,4 D,4 D,4 | E,4 E,4 E,4 | A,4 A,,4 A,,4 | D,4 D,4 D,4 | G,4 z4 z4 | z4!ff! B,4 B,4 | %89
w: rest, when my|thoughts are of|peace, when my|thoughts are of|peace,|when the|
 C6 B,2 C2 B,2 | C4 z4 z4 | z4 z4!p! (3(D2 B,2) G,2 | (3(E,2 C,2) A,,2 D,4 D,4 | E,4 z4 z4 | %94
w: din of arms is|passed,|when _ the|din _ of arms is|passed.|
 z4 z4 (3(D2 B,2) G,2 | (3(E,2 C,2) A,,2 D,4 D,4 | G,,8 |] %97
w: when _ the|din _ of arms is|passed.|
V:4
!pp! ([B,D-]12 | [CD]4) z4 z4 | (([A,C]12 | .[B,D]4)) z4 z4 | ([CE]6 [CF]2 [B,G]4) | %5
 ([A,C]6 [G,B,]2 [F,A,]4) | B,4 B,4!f! D4 | [G,B,]6 ([F,A,][G,B,]) [A,C]2 [F,A,]2 | %8
 [G,B,]4 z4 [G,B,]4 | [F,A,]6 ([E,G,][F,A,]) [G,B,]2 [E,G,]2 | [F,A,]4[K:treble] (([DF]8 | %11
 [^CE]4)) A4 C4 | (D2 E2 F2 E2 D2 ^C2) | B,4 (G2 F2 E2 D2) | (^C4 E4) G4 | F12- | F8 F4 | %17
 [B,G]4 ([^CE]2 [DF]2 [EG]2 [CE]2) | [FA]8 [DF]4 | (([EG]4 [DF]4 [^CE]4)) | D4 z4 z4 | %21
 z4 [^CE]4 [EG]4 | [DF]12- | [DF]4!p! [DA]4 [DF]4 |"^cresc." (E2 D2 E2 F2 G2 E2) | %25
 F2 E2 F2 G2 A2 F2 | [DG]4"^cresc." [DG]4 [DG]4 | [EG]8 [DF]4 |{F} [EGA]2 x2 [DF]4 [^CE]4 | %29
 [DF]4 z4!p! [^CE]4 | [DF]4 z4!ff! [^CE]4 | [DF]12 ||[M:4/4] z8 | D8 | D4 D2 D2 | D4 D4- | D4 ^C4 | %37
 z4 D4 | G8 | G4 G2 G2 | G4 F4 | G2 F2 G2 D2 | E4 E2 E2 | ([B,D][CE][B,D][A,C]) [G,B,]2 [B,D]2 | %44
 z8 | z8 | z4 [EG]2 [DF]2 | [^CE]4 [CE]2 [EG]2 | ([DF][^CE][DF][EG]) ([DF][CE][DF][EG]) | %49
 [DF]2 [DF]2 z2 [DF]2 | ([^CE][B,D][CE][DF] [CE][B,D][CE][DF]) | [^CE]2 [CE]2 z2 [CE]2 | %52
 [DF]4 [^CE]2 [B,D]2 | [B,D]2 [^A,^C]2 z4 | z4 [DF]2 [EG]2 | [B,D]4 [^A,^C]3 B, | !fermata!B,4 z4 | %57
 z4 ([B,D]4 | [EG]4 [DF]4 | [CE]4 [B,D]4 | C4 D4 | z4 B,2 D2 | G8- | G8- | G8- | G4 C2 E2 | D8- | %67
 D8- | D4 z4 | z4 [B,D]2 [B,D]2 | [^CG]4 [DF]2 [DF]2 | [DE]4 [^CA]3 [CG] | !fermata![DF]4 || %73
[M:3/2] z4 | z12 | z12 | z4 z4!p! (D4 | E6 F2 G4 | z8 [DG]4) | E3 D [CE]4 z4 | z12 | z4 D4 C4 | %82
 (3B,2 D2 [B,G]2)[K:bass] [A,C]4 [G,B,]4 | [F,A,]4 ([F,D]4 [A,D]4 | [^G,D]4) ([B,D]4 [G,B,]4) | %85
 [A,C]4 ([E,C]4 [G,C]4 | [F,C]4) ([A,C]4 [F,A,]4) | [G,B,]4[K:treble]!ff! G4 G4 | G12- | %89
 G6 G2 G2 G2 | G4[K:bass]!pp! ([G,B,]4 [A,C]4) | ([B,D]3 [A,C] [G,B,]6) ([B,D]2 | %92
 [A,C]4 [G,B,]4 [F,A,]4 | G,4)!pp! ([CE]4 [B,D]4) | ([A,C]3 [F,D] [G,B,]4) z2 ([B,D]2 | %95
 [A,C]4 [G,B,]4 [F,A,]4 | G,8) |] %97
V:5
 G,12 | A,4 z4 z4 | F,12 | .G,4 z4 z4 | C,6 D,2 E,4 | A,,6 D,2 D,4 | G,,4 G,,4 z4 | z8 D,4 | %8
 G,,6 A,,2 B,,2 C,2 | D,4 z4 D,4 | D,6 E,2 F,2 G,2 | A,4 z4 z4 | z4 D4 F,4 | %13
 G,2 A,2 B,2 A,2 G,2 F,2 | E,4 A,4 ^C,4 | D,2 E,2 F,2 E,2 D,2 ^C,2 | B,,2 ^C,2 D,2 =C,2 B,,2 A,,2 | %17
 G,,4 G,4 G,4 | F,8 B,4 | G,4 A,4 A,,4 | D,4 F,4 D,4 | A,8 A,4 | D4 A,4 B,4 | F,4 F,4 F,4 | %24
 G,8 G,4 | A,4 A,4 A,4 | B,4 B,4 B,4 | ^C8 D4 | G,4 A,4 A,,4 | D,4 z4 A,,4 | D,4 z4 [A,,A,]4 | %31
 [D,,D,]12 ||[M:4/4] z4 G,4 | z8 | z8 | z8 | z8 | z8 | z8 | z8 | z4 D,4 | G,8 | G,4 G,2 G,2 | G,8 | %44
 [A,C][B,D][A,C][G,B,] [F,A,]2 [A,C]2 | [G,B,]4 z4 | E,4 E,2 F,G, | A,G,A,B, A,2 A,2 | D4 z2 A,2 | %49
 D,^C,D,E, F,E,F,G, | A,2 A,,2 z2 A,,2 | A,^G,A,B, A,=G,F,E, | D,2 D,2 E,2 E,2 | %53
 F,E,F,G, F,E,D,^C, | D,2 B,,2 B,2 E,2 | F,4 F,3 F, | !fermata!B,,4 D,4 | G,8 | G,4 G,2 G,2 | %59
 G,4 G,4- | G,4 F,4 | B,2 x2 x4 | z4 G,2 A,2 | B,4 A,2 G,2 | CB,CB, CB,CB, | x4 G,2 x2 | %66
 B,A,B,A, B,A,B,A, | [G,B,]2 [G,,G,]2 [B,,D,]2 [G,,G,]2 | F,E,F,G, A,F,G,A, | %69
 [G,B,]2 [G,,G,]2 G,2 F,2 | E,4 D,E,F,G, | A,4 A,3 A, | !fermata!D,4 ||[M:3/2]!p! D3 C | %74
 B,6 C2 D4 | E,4 F,4 [A,D]4 | [G,B,]3 F, [G,B,]4 z4 | z12 | A,4 B,4 G,4 | C4 C,4"^dolce" E,3 F, | %80
 G,6 A,2 B,2 G,2 | x4 F,4 A,4 | G,3 E, F,4 G,4 | D,4 D,4 D,4 | E,4 E,4 E,4 | A,4 A,,4 A,,4 | %86
 D,4 D,4 D,4 | G,,4 z4 z4 | z4 B,4 B,4 | C6 B,2 C2 B,2 | C4 z4 z4 | z4 z4 (3D2 B,2 G,2 | %92
 (3E,2 C,2 A,,2 D,4 D,4 | E,4 z4 z4 | z4 z4 (3D2 B,2 G,2 | (3E,2 C,2 A,,2 D,4 D,4 | G,,8 |] %97
V:6
 x12 | x12 | x12 | x12 | x12 | x12 | G,4 G,4 F,4 | x12 | x12 | x12 | x4[K:treble] x8 | x12 | x12 | %13
 x12 | x4 ^C2 D2 E2 C2 | A,8 D4 | D8 D2 C2 | x12 | x12 | x12 | D4 x4 x4 | x12 | x12 | x12 | D12- | %25
 D12- | x12 | x12 | x12 | x12 | x12 | x12 ||[M:4/4] x8 | x8 | x8 | x8 | x8 | D2 A,2 D2 C2 | %38
 B,4 G,2 A,2 | B,4 A,2 B,2 | CDCB, A,2 D2 | B,4 B,2 B,2 | C4 C2 C2 | x8 | x8 | x8 | x8 | x8 | x8 | %49
 x8 | x8 | x8 | x8 | x8 | x8 | x4 x2 x B, | !fermata!B,4 x4 | x8 | x8 | x8 | A,6 A,2 | x8 | %62
 z4 B,2 C2 | D4 C2 B,2 | EDED EDED | E2 C2 x2 C2 | x8 | x8 | x8 | x8 | x8 | x8 | x4 ||[M:3/2] x4 | %74
 x12 | x12 | x12 | x12 | x12 | C2 x2 x4 x4 | x12 | x12 | x4[K:bass] x8 | x12 | x12 | x12 | x12 | %87
 x4[K:treble] x8 | z4 D4 D4 | E6 D2 E2 D2 | E4[K:bass] x8 | x12 | x12 | G,4 x4 x4 | x12 | x12 | %96
 x8 |] %97
V:7
 x12 | x12 | x12 | x12 | x12 | x12 | x12 | x12 | x12 | x12 | x12 | x12 | x12 | x12 | x12 | x12 | %16
 x12 | x12 | x12 | x12 | x12 | x12 | x12 | x12 | x12 | x12 | x12 | x12 | x12 | x12 | x12 | x12 || %32
[M:4/4] x8 | x8 | x8 | x8 | x8 | x8 | x8 | x8 | x8 | x8 | x8 | x8 | D,6 D,2 | G,,2 D,2 G,2 F,2 | %46
 x8 | x8 | x8 | x8 | x8 | x8 | x8 | x8 | x8 | x8 | x8 | x8 | x8 | x8 | x8 | G,2 G,2 z4 | x8 | x8 | %64
 x8 | C2 C,2 E,2 C,2 | G,F,G,F, G,F,G,F, | x8 | D,^C,D,E, F,D,E,F, | x8 | x8 | x8 | x4 || %73
[M:3/2] z4 | z12 | z8 D,4 | G,4 G,,4 x4 | x12 | x12 | x12 | x12 | D,8 D,4 | x12 | x12 | x12 | x12 | %86
 x12 | x12 | x12 | x12 | x12 | x12 | x12 | x12 | x12 | x12 | x8 |] %97

